Papirus/48x48/apps/albion-online.svg

<svg xmlns="http://www.w3.org/2000/svg" width="48" height="48" version="1.1" viewBox="0 0 12.7 12.7">
 <g transform="translate(0,-284.29999)">
  <path style="opacity:0.2" d="m 4.7624998,290.38541 h 3.175 v 4.23334 L 6.35,296.20624 4.7624998,294.61875 Z"/>
  <path style="fill:#afafb1" d="m 4.7624998,290.12082 h 3.175 v 4.23334 L 6.35,295.94165 4.7624998,294.35416 Z"/>
  <path style="fill:#e4e4e4" d="M 4.7624998,290.12082 H 6.35 v 5.82083 l -1.5875002,-1.58749 z"/>
  <rect style="opacity:0.2" width="2.117" height="7.408" x="288.27" y="-10.05" rx="1.058" ry="1.058" transform="rotate(90)"/>
  <rect style="fill:#ec8a2b" width="2.117" height="7.408" x="288" y="-10.05" rx="1.058" ry="1.058" transform="rotate(90)"/>
  <rect style="fill:#d13808" width="2.117" height="2.646" x="5.29" y="285.36"/>
  <rect style="opacity:0.2" width="3.175" height="1.058" x="4.76" y="285.62" rx=".529" ry=".529"/>
  <rect style="fill:#ec8a2b" width="3.175" height="1.058" x="4.76" y="285.36" rx=".529" ry=".529"/>
  <path style="opacity:0.2;fill:#ffffff" transform="matrix(0.26458333,0,0,0.26458333,0,284.29999)" d="M 14 14 C 11.784 14 10 15.784 10 18 C 10 18.171262 10.028141 18.334523 10.048828 18.5 C 10.295816 16.524326 11.955262 15 14 15 L 34 15 C 36.044738 15 37.704184 16.524326 37.951172 18.5 C 37.971859 18.334523 38 18.171262 38 18 C 38 15.784 36.216 14 34 14 L 14 14 z"/>
  <path style="opacity:0.2;fill:#ffffff" transform="matrix(0.26458333,0,0,0.26458333,0,284.29999)" d="M 20 4 C 18.892 4 18 4.8920001 18 6 C 18 6.1738347 18.029011 6.3394094 18.070312 6.5 C 18.292264 5.6370069 19.065835 5 20 5 L 28 5 C 28.934165 5 29.707736 5.6370069 29.929688 6.5 C 29.970989 6.3394094 30 6.1738347 30 6 C 30 4.8920001 29.108 4 28 4 L 20 4 z"/>
 </g>
</svg>

<svg xmlns="http://www.w3.org/2000/svg" width="48" height="48" version="1.1">
 <path style="opacity:0.2" d="m 18.014487,22.999972 h 12 v 16.000025 l -5.999999,5.999962 -6.000001,-5.999962 z"/>
 <path style="fill:#afafb1" d="m 18.014487,21.999947 h 12 v 16.000025 l -5.999999,5.999962 -6.000001,-5.999962 z"/>
 <path style="fill:#e4e4e4" d="m 18.014487,21.999947 h 6.000001 v 21.999987 l -6.000001,-5.999962 z"/>
 <rect style="opacity:0.2" width="8.001" height="27.999" x="15.01" y="-38" rx="3.999" ry="3.999" transform="rotate(90)"/>
 <rect style="fill:#ec8a2b" width="8.001" height="27.999" x="13.98" y="-38" rx="3.999" ry="3.999" transform="rotate(90)"/>
 <rect style="fill:#d13808" width="8.001" height="10.001" x="20.01" y="4.01"/>
 <rect style="opacity:0.2" width="12" height="3.999" x="18" y="4.99" rx="1.999" ry="1.999"/>
 <rect style="fill:#ec8a2b" width="12" height="3.999" x="18" y="4.01" rx="1.999" ry="1.999"/>
 <path style="opacity:0.2;fill:#ffffff" d="m 14.014487,13.999959 c -2.216,0 -4,1.784 -4,4 0,0.171262 0.02814,0.334523 0.04883,0.5 0.246986,-1.975674 1.906432,-3.5 3.95117,-3.5 h 20 c 2.044738,0 3.704184,1.524326 3.951172,3.5 0.02069,-0.165477 0.04883,-0.328738 0.04883,-0.5 0,-2.216 -1.784,-4 -4,-4 z"/>
 <path style="opacity:0.2;fill:#ffffff" d="m 20.014487,3.9999589 c -1.108,0 -2,0.8920001 -2,2 0,0.1738347 0.02901,0.3394094 0.07031,0.5 0.221954,-0.8629931 0.995525,-1.5 1.92969,-1.5 h 8 c 0.934165,0 1.707736,0.6370069 1.929688,1.5 0.0413,-0.1605906 0.07031,-0.3261653 0.07031,-0.5 0,-1.1079999 -0.892,-2 -2,-2 z"/>
</svg>
